X: 148
U:~=!turn!
M:C|
L:1/8
K:G
(d<g) ~g2 (d>g)b>g | (Ta>g)b>g (e<a) ~a2 | (d<g) ~g2 (d>g)b>g | T(a>g)b>g (d<g) ~g2 |
(d<g) ~g2 (d>g)b>g | T(a>g)b>g (e<a) ~a2 | (g>b)(e>g) (d>g)B>g | T(d>c)TB>A G<G [B,G] |]


